symbols/web/shield/materialsymbolsrounded/shield_wght600gradN25fill1_24px.svg

<svg xmlns="http://www.w3.org/2000/svg" height="24" width="24"><path d="M12 22.15q-.175 0-.337-.025-.163-.025-.288-.05Q8.025 21 5.888 17.9 3.75 14.8 3.75 11.1V6.6q0-.8.45-1.438.45-.637 1.175-.937l5.725-2.15q.45-.175.9-.175t.9.175l5.725 2.15q.725.3 1.175.937.45.638.45 1.438v4.5q0 3.7-2.137 6.8-2.138 3.1-5.488 4.175-.05 0-.625.075Z"/></svg>

<svg xmlns="http://www.w3.org/2000/svg" height="24" width="24"><path d="M12 22.15Q11.825 22.15 11.663 22.125Q11.5 22.1 11.375 22.075Q8.025 21 5.888 17.9Q3.75 14.8 3.75 11.1V6.6Q3.75 5.8 4.2 5.162Q4.65 4.525 5.375 4.225L11.1 2.075Q11.55 1.9 12 1.9Q12.45 1.9 12.9 2.075L18.625 4.225Q19.35 4.525 19.8 5.162Q20.25 5.8 20.25 6.6V11.1Q20.25 14.8 18.113 17.9Q15.975 21 12.625 22.075Q12.575 22.075 12 22.15Z"/></svg>
